assets/icons/home-icon.svg

<?xml version="1.0" encoding="utf-8"?>
<!-- Generator: Adobe Illustrator 25.4.1, SVG Export Plug-In . SVG Version: 6.00 Build 0)  -->
<svg version="1.1" id="Layer_1" xmlns="http://www.w3.org/2000/svg" xmlns:xlink="http://www.w3.org/1999/xlink" x="0px" y="0px"
	 viewBox="0 0 24 24" style="enable-background:new 0 0 24 24;" xml:space="preserve">
<style type="text/css">
	.st0{fill:#FFFFFF;}
</style>
<path class="st0" d="M12,20c-4.4,0-8-3.6-8-8s3.6-8,8-8s8,3.6,8,8S16.4,20,12,20 M12,2C6.5,2,2,6.5,2,12s4.5,10,10,10s10-4.5,10-10
	S17.5,2,12,2 M11,14h2v3h3v-5h2l-6-5l-6,5h2v5h3V14"/>
</svg>

<svg xmlns="http://www.w3.org/2000/svg" viewBox="0 0 24 24"><path d="M12 20C7.6 20 4 16.4 4 12S7.6 4 12 4 20 7.6 20 12 16.4 20 12 20M12 2C6.5 2 2 6.5 2 12S6.5 22 12 22 22 17.5 22 12 17.5 2 12 2M11 14H13V17H16V12H18L12 7L6 12H8V17H11V14" /></svg>
